icons/editor-letter-spacing-1-filled.svg

<svg width="25" height="24" viewBox="0 0 25 24" fill="none" xmlns="http://www.w3.org/2000/svg">
<g id="letter-spacing-01">
<path id="Icon" d="M6.26353 20.7545L2.90039 17.3913M2.90039 17.3913L6.26353 14.0282M2.90039 17.3913H22.1004M18.7372 20.7545L22.1004 17.3913M22.1004 17.3913L18.7372 14.0282M12.7589 12.4898V2.40039M12.7589 2.40039L8.30768 2.40039M12.7589 2.40039L16.9134 2.40039" stroke="black" stroke-width="2" stroke-linecap="round" stroke-linejoin="round"/>
</g>
</svg>

<svg xmlns="http://www.w3.org/2000/svg" width="25" height="24" fill="none" viewBox="0 0 25 24"><path stroke="currentColor" stroke-linecap="round" stroke-linejoin="round" stroke-width="2" d="M6.264 20.755 2.9 17.39m0 0 3.364-3.363M2.9 17.391h19.2m-3.363 3.364L22.1 17.39m0 0-3.363-3.363M12.76 12.49V2.4m0 0H8.308m4.45 0h4.155"/></svg>
